img/ico/softwares/adobexd.svg

<?xml version="1.0" encoding="UTF-8" standalone="no"?>
<svg
   xmlns:dc="http://purl.org/dc/elements/1.1/"
   xmlns:cc="http://creativecommons.org/ns#"
   xmlns:rdf="http://www.w3.org/1999/02/22-rdf-syntax-ns#"
   xmlns:svg="http://www.w3.org/2000/svg"
   xmlns="http://www.w3.org/2000/svg"
   xml:space="preserve"
   style="enable-background:new 0 0 240 234;"
   viewBox="0 0 240 234"
   y="0px"
   x="0px"
   id="Layer_1"
   version="1.1"><metadata
   id="metadata21"><rdf:RDF><cc:Work
       rdf:about=""><dc:format>image/svg+xml</dc:format><dc:type
         rdf:resource="http://purl.org/dc/dcmitype/StillImage" /><dc:title></dc:title></cc:Work></rdf:RDF></metadata><defs
   id="defs19">
	
	

		
	
		
	
			
			
		
			
		
				
			</defs>
<style
   id="style2"
   type="text/css">
	.st0{fill:#470137;}
	.st1{fill:#FF61F6;}
</style>
<path
   id="path4"
   d="M 42.5 0 C 19 0 0 19 0 42.5 L 0 191.5 C 0 215 19 234 42.5 234 L 197.5 234 C 221 234 240 215 240 191.5 L 240 42.5 C 240 19 221 0 197.5 0 L 42.5 0 z M 183.19922 51.300781 L 203.5 51.300781 C 204 51.200781 204.4 51.6 204.5 52 L 204.5 52.199219 L 204.5 147.40039 C 204.5 149.20039 204.59922 151.20039 204.69922 153.40039 C 204.89922 155.50039 204.99961 157.49922 205.09961 159.19922 C 205.09961 159.89922 204.79961 160.50078 204.09961 160.80078 C 198.89961 163.00078 193.40078 164.59961 187.80078 165.59961 C 182.70078 166.49961 177.60039 167 172.40039 167 C 165.00039 167.1 157.60039 165.6 150.90039 162.5 C 144.60039 159.6 139.40078 154.80039 135.80078 148.90039 C 132.10078 142.80039 130.30078 135.19961 130.30078 126.09961 C 130.20078 118.69961 132.10078 111.4 135.80078 105 C 139.60078 98.5 145.09922 93.1 151.69922 89.5 C 158.69922 85.6 167.1 83.699219 177 83.699219 C 177.5 83.699219 178.19961 83.700781 179.09961 83.800781 C 179.99961 83.900781 180.99922 83.9 182.19922 84 L 182.19922 52.400391 C 182.19922 51.700391 182.49922 51.300781 183.19922 51.300781 z M 36.800781 60 L 59.5 60 C 60 60 60.500391 60.099219 60.900391 60.199219 C 61.300391 60.399219 61.600391 60.699609 61.900391 61.099609 C 63.800391 65.399609 66.000781 69.7 68.300781 74 C 70.700781 78.3 73 82.499219 75.5 86.699219 C 77.9 90.899219 80.099219 95.100391 82.199219 99.400391 L 82.400391 99.400391 C 84.500391 95.000391 86.700391 90.7 88.900391 86.5 C 91.100391 82.3 93.399219 78.100391 95.699219 73.900391 C 97.999219 69.700391 100.20039 65.400781 102.40039 61.300781 C 102.50039 60.900781 102.7 60.500781 103 60.300781 C 103.4 60.100781 103.80078 59.999609 104.30078 60.099609 L 125.40039 60.099609 C 125.90039 59.999609 126.4 60.300781 126.5 60.800781 C 126.6 60.900781 126.39922 61.3 126.19922 61.5 L 96.199219 111 L 128.19922 163.5 C 128.39922 163.9 128.50039 164.29922 128.40039 164.69922 C 128.30039 165.09922 127.90078 164.80039 127.30078 164.90039 L 104.40039 164.90039 C 102.80039 164.90039 101.7 164.80078 101 163.80078 C 98.9 159.60078 96.699609 155.50078 94.599609 151.30078 C 92.499609 147.20078 90.200781 142.99922 87.800781 138.69922 C 85.400781 134.39922 82.999609 130.09922 80.599609 125.69922 L 80.400391 125.69922 C 78.300391 129.99922 75.999219 134.29961 73.699219 138.59961 C 71.399219 142.89961 69.100391 147.20039 66.900391 151.40039 C 64.600391 155.60039 62.3 159.9 60 164 C 59.6 165 58.799219 165.09961 57.699219 165.09961 L 35.699219 165.09961 C 35.299219 165.09961 35 165.30078 35 164.80078 C 34.9 164.40078 34.999219 163.99922 35.199219 163.69922 L 66.300781 112.69922 L 36 61.400391 C 35.7 61.000391 35.600781 60.600391 35.800781 60.400391 C 36.000781 60.100391 36.400781 60 36.800781 60 z M 176.19922 102.30078 C 172.29922 102.30078 168.40039 103.10039 164.90039 104.90039 C 161.50039 106.60039 158.60039 109.10078 156.40039 112.30078 C 154.20039 115.50078 153.09961 119.8 153.09961 125 C 152.99961 128.5 153.60078 132.00078 154.80078 135.30078 C 155.80078 138.00078 157.30078 140.40039 159.30078 142.40039 C 161.20078 144.20039 163.49961 145.60039 166.09961 146.40039 C 168.79961 147.30039 171.60039 147.69922 174.40039 147.69922 C 175.90039 147.69922 177.29961 147.6 178.59961 147.5 C 179.89961 147.6 180.99922 147.4 182.19922 147 L 182.19922 103 C 181.29922 102.8 180.4 102.6 179.5 102.5 C 178.4 102.4 177.29922 102.30078 176.19922 102.30078 z "
   style="fill:#225222;fill-opacity:1" />
</svg>

<?xml version="1.0" encoding="utf-8"?>
<!-- Generator: Adobe Illustrator 24.1.0, SVG Export Plug-In . SVG Version: 6.00 Build 0)  -->
<svg version="1.1" id="Layer_1" xmlns="http://www.w3.org/2000/svg" xmlns:xlink="http://www.w3.org/1999/xlink" x="0px" y="0px"
	 viewBox="0 0 240 234" style="enable-background:new 0 0 240 234;" xml:space="preserve">
<style type="text/css">
	.st0{fill:#470137;}
	.st1{fill:#FF61F6;}
</style>
<g id="Layer_2_1_">
	<g id="Surfaces">
		<g id="UI_UX_Surface">
			<g id="Outline_no_shadow">
				<path class="st0" d="M42.5,0h155C221,0,240,19,240,42.5v149c0,23.5-19,42.5-42.5,42.5h-155C19,234,0,215,0,191.5v-149
					C0,19,19,0,42.5,0z"/>
			</g>
		</g>
	</g>
	<g id="Outlined_Mnemonics_Logos">
		<g id="Xd">
			<path class="st1" d="M126.2,61.5L96.2,111l32,52.5c0.2,0.4,0.3,0.8,0.2,1.2c-0.1,0.4-0.5,0.1-1.1,0.2h-22.9
				c-1.6,0-2.7-0.1-3.4-1.1c-2.1-4.2-4.3-8.3-6.4-12.5c-2.1-4.1-4.4-8.3-6.8-12.6c-2.4-4.3-4.8-8.6-7.2-13h-0.2
				c-2.1,4.3-4.4,8.6-6.7,12.9c-2.3,4.3-4.6,8.6-6.8,12.8c-2.3,4.2-4.6,8.5-6.9,12.6c-0.4,1-1.2,1.1-2.3,1.1H35.7
				c-0.4,0-0.7,0.2-0.7-0.3c-0.1-0.4,0-0.8,0.2-1.1l31.1-51L36,61.4c-0.3-0.4-0.4-0.8-0.2-1c0.2-0.3,0.6-0.4,1-0.4h22.7
				c0.5,0,1,0.1,1.4,0.2c0.4,0.2,0.7,0.5,1,0.9c1.9,4.3,4.1,8.6,6.4,12.9c2.4,4.3,4.7,8.5,7.2,12.7c2.4,4.2,4.6,8.4,6.7,12.7h0.2
				c2.1-4.4,4.3-8.7,6.5-12.9c2.2-4.2,4.5-8.4,6.8-12.6c2.3-4.2,4.5-8.5,6.7-12.6c0.1-0.4,0.3-0.8,0.6-1c0.4-0.2,0.8-0.3,1.3-0.2
				h21.1c0.5-0.1,1,0.2,1.1,0.7C126.6,60.9,126.4,61.3,126.2,61.5L126.2,61.5z"/>
			<path class="st1" d="M172.4,167c-7.4,0.1-14.8-1.4-21.5-4.5c-6.3-2.9-11.5-7.7-15.1-13.6c-3.7-6.1-5.5-13.7-5.5-22.8
				c-0.1-7.4,1.8-14.7,5.5-21.1c3.8-6.5,9.3-11.9,15.9-15.5c7-3.9,15.4-5.8,25.3-5.8c0.5,0,1.2,0,2.1,0.1c0.9,0.1,1.9,0.1,3.1,0.2
				V52.4c0-0.7,0.3-1.1,1-1.1h20.3c0.5-0.1,0.9,0.3,1,0.7c0,0.1,0,0.2,0,0.2v95.2c0,1.8,0.1,3.8,0.2,6c0.2,2.1,0.3,4.1,0.4,5.8
				c0,0.7-0.3,1.3-1,1.6c-5.2,2.2-10.7,3.8-16.3,4.8C182.7,166.5,177.6,167,172.4,167z M182.2,147v-44c-0.9-0.2-1.8-0.4-2.7-0.5
				c-1.1-0.1-2.2-0.2-3.3-0.2c-3.9,0-7.8,0.8-11.3,2.6c-3.4,1.7-6.3,4.2-8.5,7.4c-2.2,3.2-3.3,7.5-3.3,12.7c-0.1,3.5,0.5,7,1.7,10.3
				c1,2.7,2.5,5.1,4.5,7.1c1.9,1.8,4.2,3.2,6.8,4c2.7,0.9,5.5,1.3,8.3,1.3c1.5,0,2.9-0.1,4.2-0.2C179.9,147.6,181,147.4,182.2,147z"
				/>
		</g>
	</g>
</g>
</svg>
